X:1
T:Fantasia (1)
T:Fantasia (1)
T:from "Fantasias for Strings", Book 1
T:Henry Purcell (1659-1695)
T:Z. 732
C:Henry Purcell (1659-1695)
%%score [ 1 2 3 ]
L:1/8
Q:1/2=42
M:2/2
K:C
V:1 treble nm="Diskantgambe"
V:2 alto nm="Altgambe"
V:3 bass nm="Gambe"
V:1
 z8 |!p! A4 A2 BA | ^G^FED CB, A,2 | F4 E4 | z4 d4 | d2 ed ^cBAG | FEDC B,4 | BA^G^F EDCB, | %8
 A,GFE Dc _B2 | A3 E F^C D2 | g4 g2 ag | ^fedc _BAGF | _ED C3 A, _B,C | D4 z4 | d4 d2 ed | %15
 ^cBAG F2 Ea | gfed e4 | d4 z2!f! A2 | c2 E G2 F D2 | A2 z2 e2 g2 | B d2 c A2 Gc- | cB G _B2 A FG | %22
 AG/F/ c2 e g2 f | defe/d/ cd_ed/c/ | d2 GA _BA/G/ cB/A/ | G3 F F4 | z4 z2 B2- | BAB^F ^G2 A2- | %28
 A2 ^G2 A2 f2- | fef^c d4- | dc _eA =B2 c2- | c3 _B A2 B2- | BG_AD =E2 F2- | F2 E2 F2 f2- | %34
 f_e_gc _d=d _e2- | e2 d3 c c2- | cAdG A3 E | %37
 F[Q:1/2=42]^C[Q:1/2=42] D4[Q:1/2=39]"^.8" C2[Q:1/2=41]"^.8"[Q:1/2=41]"^.4"[Q:1/2=38]"^.6" | %38
[Q:1/2=37] D2[Q:1/4=104]"^Quick (Schnell)"!p! da ge f/e/d/e/ | ^cA f2- f/g/f/e/ d2- | %40
 d/_e/d/c/ _B>c A2 G2- | GA/E/ F4 gc' | af g/f/e/d/ cA Gd | _BG c/d/c/B/ A^F Dd | %44
 ^cA f/a/g/f/ e=c'/_b/ a/g/f/e/ | d3 _b/a/ g/f/e/d/ ^cA | d/c/B/A/ ^GA/B/ B3 A | Afdg ecde | %48
 f2 z2 z4 |!<(! z _b g2 z c' a2 | z f d2 z g e2 | %51
 z A d3[Q:1/2=52] c[Q:1/2=50]"^.2" c>[Q:1/2=35]"^.2"B[Q:1/2=42]"^.2" | %52
[Q:1/2=26] c2!<)![Q:1/4=52]"^Drag\n(Schleppend)\n"!f! G>G G2 ^G2 | A2 a4 g>g | g2 f4 e2 | %55
 f3 d =B2 c2- | c2 _B2 A2 a2- | a2 g2 ^f2 =f2- | f2 e2 ^c4- | c^c d4 c2 | !fermata!d8 |] %61
V:2
!p! D4 D2 ED | ^CB,A,G, F,E, D,2 | E,3 E, A,2 E2- | E2 D4 CB, | A,B,^CA, DEFD | EFGF ED^CB, | %6
 A,2 A2 A2 BA | ^G^FED CB,A,!courtesy!=G | FEDc _BA G2- | GEF^C DE F2- | F2 _ED E4 | D2 z2 G4 | %12
 G2 AG ^FEDC | _B,A, G,2 A4 | A2 _BA GFEF | ED^CB, A,AGF | ED D4 ^C2 | D2!f! D2 F2 A,C- | %18
 C_B, G,2 D3 C | A,2 A2 c2 EG- | GF D2 C F2 E | C _E2 D _B,C DC/B,/ | F2 A c2 _BGB- | %23
 _BA FG A_BcB/A/ | GA_BA/G/ E2 F2- | F2 E2 F4 | z2 E3 D EB, | C6 B,A, | C2 B,2 A,2 A2- | %29
 AGAE F3 ^F | G3 !courtesy!=F _AD _E2 | D4- DC F_B, | C2 C3 _B, _DG, | (_A,G,) C,2 F,4 | %34
 z2 c3 F _B_E | F2 _B3 G A!courtesy!=E | ^F2 G3 E FB, | ^CGAE E3 D |!p! D4 z4 | %39
 z2 A,D ^CA, _B,/A,/G,/A,/ | ^F,D, D2- D/_E/D/C/ _B,2 | A,3 C/F,/ G,4 | CF EC F/G/F/E/ DG, | %43
 DG EA, D/E/D/C/ _B,G, | G,E ^CA, A/_B/A/G/ F2- | F_B/A/ G/F/E/D/ ^C2 A,A/G/ | %46
 F/E/D/C/ B,A, ^G,3 A, | A,A_BG cBAG | FFEA ^FDEF |!<(! G2 z D G2 z c | A2 z _B G2 z A | %51
 F2 z D GEDG | E2!<)!!f! E>E E2 D2 | E2 F>E D3 E | ^C2 !courtesy!=c4 _B>B | _B2 A2 G3 A | %56
 ^F2 =F4 E2 | D4 C3 D | =B,2 _B4 A2 | F3 E E4 | !fermata!D8 |] %61
V:3
 z8 | z8 | z4!p! A,4 | A,2 B,A, ^G,^F,E,D, | C,B,,A,,G,, F,,E,, D,,2 | A,,8 | D,E,F,D, E,4- | %7
 E,4 z4 | D,4 D,2 E,D, | ^C,B,,A,,G,, F,,E,,D,,!courtesy!=C, | B,,4 C,2 C2- | %11
 CA,_B,^F, G,!courtesy!=F,_E,D, | C,2 F,_E, D,C,_B,,A,, | G,,2 G,2 G,2 A,G, | %14
 ^F,E,D,C, _B,,A,, G,,2 | A,,8 | A,,8 | D,4 z4 | z4 z2!f! D,2 | F,2 A,, C,2 _B,, G,,2 | %20
 D,2 z2 A,2 C2 | E, G,2 F, D,2 z2 | F,, F,2 E, C, _E,2 D, | _B,,C,D,C,/B,,/ A,,4 | %24
 _B,,4 C,2 A,,F,, | C,4 F,,2 A,2- | A,G,A,E, F,4 | E,6 D,2 | E,3 D, ^C,4 | D,2 D3 ^C DA, | %30
 B,2 C2 z2 G,2- | G,F,_A,D, F,2 D,_B,, | F,,4 C,3 _B,, | C,2 C3 _B, _DG, | =A,4 _B,2 G,2 | %35
 _B,2 _B,,2 _E,3 C, | D,A,, _B,,G,, D,3 G,, | A,,E,,F,,D,, A,,4 |!p! D,,4 z4 | z8 | %40
 z2 D,G, ^F,D, E,/!courtesy!=F,/E,/D,/ | ^C,A,, D,A,, !courtesy!=C,4 | F,,2 C,C A,F, _B,/C/B,/A,/ | %43
 G,E, A,,A, ^F,D, G,/A,/G,/F,/ | E,^C, A,,D, C,A,, D,/E,/D,/!courtesy!=C,/ | %45
 _B,,G,, _B,/A,/G,/F,/ E,2 A,/G,/F,/E,/ | D,2 E,/D,/C,/A,,/ E,,4 | A,,2 z2 z4 | z F,CA, DC_B,A, | %49
!<(! G,2 z G, E,2 z C, | F,2 z G, C2 z A, | D2 z G, E,C, G,G,, | C,2!<)!!f! C>C C2 B,2 | %53
 ^C2 D>!courtesy!=C _B,4 | A,3 A, G,2 C2 | F,2 F,4 _E,2 | D,2 D4 C2 | B,2 _B,4 A,2 | G,4 A,4- | %59
 A,2 G,,2 A,,4 | !fermata!D,8 |] %61

